;FLAVOR:Marlin
;TIME:11923
;Filament used: 8.74102m
;Layer height: 0.2
;MINX:53.43
;MINY:65.93
;MINZ:0.3
;MAXX:156.57
;MAXY:144.07
;MAXZ:5.975
;TARGET_MACHINE.NAME:Anycubic i3 Mega S/Pro
;Generated with Cura_SteamEngine 5.6.0
M82 ;absolute extrusion mode
;Profil Homepage: https://github.com/NilsRo/Cura_Anycubic_MegaS_Profile

;Slicer Information - (Support for OctoPrint Slicer Estimator)
;Slicer info:material_guid;3a6da4c3-9c60-46dd-92f1-e709e41e8c20
;Slicer info:material_id;custom_material
;Slicer info:material_brand;Benutzerdefiniert
;Slicer info:material_name;Benutzerdefiniertes Material
;Slicer info:filament_cost;[0.0]
;Slicer info:material_bed_temperature;65.0
;Slicer info:material_bed_temperature_layer_0;65.0
;Slicer info:material_print_temperature;200
;Slicer info:material_print_temperature_layer_0;205
;Slicer info:material_flow;100
;Slicer info:layer_height;0.2
;Slicer info:machine_nozzle_size;0.4
;Slicer info:wall_thickness;1.2000000000000002
;Slicer info:speed_print;50.0
;Slicer info:speed_topbottom;25.0
;Slicer info:travel_speed;100.0
;Slicer info:support;0
;Slicer info:retraction_speed;30
;Slicer info:retraction_amount;6
;Slicer info:layer_height;0.2
;Slicer info:infill_pattern;lines
;Slicer info:infill_sparse_density;30
;Slicer info:cool_fan_enabled;True
;Slicer info:cool_fan_speed;100
;Slicer info:sliced_at;Thu 24-10-2024 12:28:37
G21                                        ; metric values 
G90                                        ; absolute positioning 
M82                                        ; set extruder to absolute mode 
M900 K0                                    ; disable lin. adv. if not set in GCODE
M107                                       ; start with the fan off 
M140 S65.0   ; Start heating the bed 
G4 S60                                     ; wait 1 minute 
M104 S205 ; start heating the hot end 
M190 S65.0   ; wait for bed 
M109 S205 ; wait for hotend 
M300 S1000 P500                            ; BEEP heating done 
G28 X0 Y10 Z0                              ; move X/Y to min endstops 
M420 S1                                    ; Enable leveling 
M420 Z2.0                                  ; Set leveling fading height to 2 mm 
G0 Z0.15                                   ; lift nozzle a bit 
G92 E0                                     ; zero the extruded length 
G1 X50 E20 F500                            ; Extrude 20mm of filament in a 5cm line. 
G92 E0                                     ; zero the extruded length again 
G1 E-2 F500                                ; Retract a little 
G1 X50 F500                                ; wipe away from the filament line
G1 X100 F9000                              ; Quickly wipe away from the filament line
G92 E0
G92 E0
G1 F1800 E-6
;LAYER_COUNT:29
;LAYER:0
M106 S76.5
M205 X10 Y10
G1 F480 Z0.375
G0 F6000 X56.56 Y68.176 Z0.375
M205 X8 Y8
;TYPE:SKIRT
G1 F480 Z0.3
G1 F1800 E0
G1 F1200 X57.315 Y67.586 E0.04541
G1 X57.888 Y67.196 E0.07827
G1 X58.524 Y66.871 E0.11212
G1 X59.099 Y66.623 E0.1418
G1 X59.591 Y66.427 E0.1669
G1 X60.283 Y66.203 E0.20137
G1 X61.172 Y66.034 E0.24426
G1 X62.085 Y65.943 E0.28775
G1 X62.954 Y65.93 E0.32894
G1 X147.118 Y65.93 E4.31795
G1 X147.925 Y65.943 E4.3562
G1 X148.912 Y66.049 E4.40325
G1 X149.532 Y66.174 E4.43323
G1 X150.392 Y66.422 E4.47565
G1 X150.918 Y66.626 E4.50239
G1 X151.431 Y66.845 E4.52882
G1 X152.045 Y67.156 E4.56145
G1 X152.519 Y67.467 E4.58832
G1 X153.294 Y68.038 E4.63394
G1 X153.905 Y68.584 E4.67278
G1 X154.324 Y69.06 E4.70283
G1 X154.915 Y69.816 E4.74831
G1 X155.305 Y70.389 E4.78116
G1 X155.64 Y71.05 E4.81629
G1 X156.028 Y71.974 E4.86378
G1 X156.299 Y72.763 E4.90332
G1 X156.464 Y73.648 E4.94599
G1 X156.557 Y74.583 E4.99053
G1 X156.57 Y75.436 E5.03096
G1 X156.57 Y134.659 E7.83787
G1 X156.558 Y135.418 E7.87385
G1 X156.452 Y136.399 E7.92062
G1 X156.327 Y137.024 E7.95083
G1 X156.078 Y137.892 E7.99363
G1 X155.877 Y138.414 E8.02014
G1 X155.658 Y138.926 E8.04653
G1 X155.348 Y139.54 E8.07913
G1 X155.033 Y140.019 E8.1063
G1 X154.46 Y140.797 E8.1521
G1 X153.916 Y141.405 E8.19076
G1 X153.44 Y141.824 E8.22082
G1 X152.685 Y142.414 E8.26623
G1 X152.112 Y142.804 E8.29909
G1 X151.476 Y143.129 E8.33294
G1 X150.901 Y143.377 E8.36262
G1 X150.409 Y143.573 E8.38772
G1 X149.717 Y143.797 E8.42219
G1 X148.828 Y143.966 E8.46508
G1 X147.915 Y144.057 E8.50857
G1 X147.04 Y144.07 E8.55004
G1 X62.807 Y144.069 E12.54232
G1 X62.079 Y144.057 E12.57683
G1 X61.101 Y143.952 E12.62345
G1 X60.476 Y143.827 E12.65366
G1 X59.608 Y143.578 E12.69646
G1 X59.082 Y143.374 E12.7232
G1 X58.569 Y143.155 E12.74964
G1 X57.955 Y142.844 E12.78226
G1 X57.481 Y142.533 E12.80913
G1 X56.706 Y141.962 E12.85475
G1 X56.095 Y141.416 E12.89359
G1 X55.676 Y140.94 E12.92364
G1 X55.085 Y140.184 E12.96912
G1 X54.696 Y139.612 E13.00191
G1 X54.368 Y138.971 E13.03604
G1 X53.973 Y138.048 E13.08362
G1 X53.689 Y137.17 E13.12736
G1 X53.536 Y136.346 E13.16708
G1 X53.443 Y135.413 E13.21152
G1 X53.43 Y134.54 E13.2529
G1 X53.431 Y75.294 E16.0609
G1 X53.443 Y74.578 E16.09484
G1 X53.548 Y73.6 E16.14146
G1 X53.674 Y72.971 E16.17187
G1 X53.926 Y72.097 E16.21498
G1 X54.126 Y71.58 E16.24125
G1 X54.346 Y71.064 E16.26784
G1 X54.657 Y70.451 E16.30042
G1 X54.959 Y69.991 E16.3265
G1 X55.544 Y69.197 E16.37324
G1 X56.055 Y68.623 E16.40966
G1 X56.56 Y68.176 E16.44163
M205 X10 Y10
G0 F6000 X56.794 Y68.475
M205 X8 Y8
G1 F1200 X57.53 Y67.899 E16.48592
G1 X58.061 Y67.534 E16.51646
G1 X58.674 Y67.22 E16.54911
G1 X59.24 Y66.976 E16.57832
G1 X59.708 Y66.789 E16.60221
G1 X60.4 Y66.565 E16.63668
G1 X61.21 Y66.412 E16.67575
G1 X62.091 Y66.323 E16.71772
G1 X62.96 Y66.31 E16.75891
G1 X147.113 Y66.31 E20.7474
G1 X147.885 Y66.321 E20.78399
G1 X148.837 Y66.422 E20.82936
G1 X149.457 Y66.547 E20.85934
G1 X150.255 Y66.776 E20.89869
G1 X150.769 Y66.975 E20.92481
G1 X151.261 Y67.185 E20.95017
G1 X151.837 Y67.474 E20.98071
G1 X152.294 Y67.773 E21.00659
G1 X153.042 Y68.322 E21.05057
G1 X153.62 Y68.835 E21.0872
G1 X154.025 Y69.294 E21.11621
G1 X154.602 Y70.031 E21.16057
G1 X154.966 Y70.561 E21.19105
G1 X155.301 Y71.222 E21.22617
G1 X155.669 Y72.099 E21.27125
G1 X155.925 Y72.833 E21.30809
G1 X156.09 Y73.718 E21.35076
G1 X156.177 Y74.589 E21.39225
G1 X156.19 Y75.442 E21.43268
G1 X156.19 Y134.654 E24.23907
G1 X156.18 Y135.378 E24.27339
G1 X156.079 Y136.324 E24.31848
G1 X155.954 Y136.949 E24.34869
G1 X155.724 Y137.755 E24.38842
G1 X155.527 Y138.265 E24.41433
G1 X155.318 Y138.756 E24.43962
G1 X155.03 Y139.332 E24.47014
G1 X154.727 Y139.794 E24.49633
G1 X154.176 Y140.545 E24.54048
G1 X153.665 Y141.12 E24.57693
G1 X153.206 Y141.525 E24.60595
G1 X152.47 Y142.101 E24.65024
G1 X151.939 Y142.466 E24.68078
G1 X151.326 Y142.78 E24.71343
G1 X150.76 Y143.024 E24.74264
G1 X150.292 Y143.211 E24.76652
G1 X149.6 Y143.435 E24.801
G1 X148.79 Y143.588 E24.84007
G1 X147.909 Y143.677 E24.88204
G1 X147.04 Y143.69 E24.92323
G1 X62.812 Y143.689 E28.91527
G1 X62.119 Y143.679 E28.94812
G1 X61.176 Y143.579 E28.99306
G1 X60.551 Y143.454 E29.02327
G1 X59.745 Y143.224 E29.063
G1 X59.231 Y143.025 E29.08912
G1 X58.739 Y142.815 E29.11448
G1 X58.163 Y142.526 E29.14502
G1 X57.706 Y142.227 E29.1709
G1 X56.958 Y141.678 E29.21488
G1 X56.38 Y141.165 E29.25151
G1 X55.975 Y140.706 E29.28052
G1 X55.398 Y139.969 E29.32488
G1 X55.034 Y139.439 E29.35536
G1 X54.717 Y138.821 E29.38828
G1 X54.334 Y137.93 E29.43424
G1 X54.063 Y137.101 E29.47558
G1 X53.91 Y136.277 E29.5153
G1 X53.823 Y135.407 E29.55674
G1 X53.81 Y134.54 E29.59784
G1 X53.811 Y75.3 E32.40556
G1 X53.821 Y74.618 E32.43789
G1 X53.921 Y73.675 E32.48283
G1 X54.047 Y73.046 E32.51323
G1 X54.28 Y72.234 E32.55327
G1 X54.475 Y71.729 E32.57893
G1 X54.686 Y71.235 E32.60439
G1 X54.975 Y70.66 E32.63489
G1 X55.277 Y70.2 E32.66097
G1 X55.828 Y69.45 E32.70508
G1 X56.339 Y68.876 E32.7415
G1 X56.794 Y68.475 E32.77025
M205 X10 Y10
G1 F1800 E26.77025
G1 F480 Z0.375
G0 F6000 X60.151 Y72.651 Z0.375
M205 X8 Y8
G1 F480 Z0.3
G1 F1800 E32.77025
G1 F1200 X60.838 Y72.128 E32.81117
G1 X61.621 Y71.807 E32.85128
G1 X62.198 Y71.69 E32.87918
G1 X147.802 Y71.69 E36.93644
G1 X148.379 Y71.807 E36.96435
G1 X149.162 Y72.128 E37.00446
G1 X149.849 Y72.651 E37.04538
G1 X150.372 Y73.338 E37.0863
G1 X150.693 Y74.121 E37.12641
G1 X150.81 Y74.697 E37.15427
G1 X150.81 Y135.3 E40.02659
G1 X150.693 Y135.879 E40.05458
G1 X150.372 Y136.662 E40.09469
G1 X149.849 Y137.349 E40.13562
G1 X149.162 Y137.872 E40.17654
G1 X148.379 Y138.193 E40.21665
G1 X147.802 Y138.31 E40.24455
G1 X62.198 Y138.31 E44.30181
G1 X61.621 Y138.193 E44.32972
G1 X60.838 Y137.872 E44.36982
G1 X60.151 Y137.349 E44.41075
G1 X59.628 Y136.662 E44.45167
G1 X59.307 Y135.879 E44.49178
G1 X59.19 Y135.3 E44.51977
G1 X59.19 Y74.697 E47.39209
G1 X59.307 Y74.121 E47.41995
G1 X59.628 Y73.338 E47.46006
G1 X60.151 Y72.651 E47.50098
M205 X10 Y10
G0 F6000 X60.296 Y72.831
M205 X8 Y8
G1 F1200 X59.835 Y73.432 E47.53688
G1 X59.811 Y73.475 E47.53922
G1 X59.426 Y74.403 E47.58683
G1 X59.411 Y74.476 E47.59037
G1 X59.411 Y74.734 E47.6026
G1 X59.41 Y74.739 E47.60284
G1 X59.41 Y135.261 E50.47132
G1 X59.414 Y135.298 E50.47308
G1 X59.514 Y135.801 E50.49739
G1 X59.525 Y135.837 E50.49917
G1 X59.811 Y136.525 E50.53449
G1 X59.835 Y136.568 E50.53682
G1 X60.296 Y137.169 E50.57272
G1 X60.331 Y137.204 E50.57507
G1 X60.932 Y137.665 E50.61097
G1 X60.975 Y137.689 E50.6133
G1 X61.903 Y138.074 E50.66092
G1 X61.976 Y138.089 E50.66445
G1 X62.23 Y138.089 E50.67649
G1 X62.239 Y138.09 E50.67692
G1 X147.761 Y138.09 E54.73029
G1 X147.798 Y138.086 E54.73206
G1 X148.301 Y137.986 E54.75636
G1 X148.337 Y137.975 E54.75815
G1 X149.025 Y137.689 E54.79346
G1 X149.068 Y137.665 E54.79579
G1 X149.669 Y137.204 E54.83169
G1 X149.704 Y137.169 E54.83404
G1 X150.165 Y136.568 E54.86994
G1 X150.189 Y136.525 E54.87227
G1 X150.49 Y135.8 E54.90948
G1 X150.574 Y135.597 E54.91989
G1 X150.589 Y135.524 E54.92342
G1 X150.589 Y135.266 E54.93565
G1 X150.59 Y135.261 E54.93589
G1 X150.59 Y74.739 E57.80438
G1 X150.586 Y74.702 E57.80614
G1 X150.486 Y74.199 E57.83045
G1 X150.475 Y74.163 E57.83223
G1 X150.189 Y73.475 E57.86754
G1 X150.165 Y73.432 E57.86988
G1 X149.704 Y72.831 E57.90578
G1 X149.669 Y72.796 E57.90812
G1 X149.068 Y72.335 E57.94402
G1 X149.025 Y72.311 E57.94636
G1 X148.3 Y72.01 E57.98356
G1 X148.097 Y71.926 E57.99398
G1 X148.024 Y71.911 E57.99751
G1 X147.77 Y71.911 E58.00955
G1 X147.761 Y71.91 E58.00997
G1 X62.239 Y71.91 E62.06335
G1 X62.202 Y71.914 E62.06511
G1 X61.699 Y72.014 E62.08942
G1 X61.663 Y72.025 E62.0912
G1 X60.975 Y72.311 E62.12652
G1 X60.932 Y72.335 E62.12885
G1 X60.331 Y72.796 E62.16475
G1 X60.296 Y72.831 E62.1671
M205 X10 Y10
G1 F1800 E56.1671
G1 F480 Z0.375
G0 F6000 X63.069 Y75.821 Z0.375
M205 X8 Y8
G1 F480 Z0.3
G1 F1800 E62.1671
G1 F1200 X63.322 Y75.568 E62.18405
G1 X63.652 Y75.401 E62.20158
G1 X63.767 Y75.384 E62.20709
G1 X64.013 Y75.348 E62.21888
G1 X64.281 Y75.394 E62.23177
G1 X64.714 Y76.275 E62.27829
G1 X64.875 Y77.329 E62.32883
G1 X64.93 Y77.434 E62.33444
G1 X64.828 Y77.374 E62.34005
G1 X63.782 Y77.215 E62.3902
G1 X62.895 Y76.784 E62.43694
G1 X62.891 Y76.774 E62.43745
G1 X62.847 Y76.513 E62.44999
G1 X62.902 Y76.151 E62.46735
G1 X63.069 Y75.821 E62.48488
M205 X10 Y10
G0 F6000 X63.379 Y76.049
M205 X8 Y8
G1 F1200 X63.55 Y75.878 E62.49634
G1 X63.767 Y75.768 E62.50787
G1 X63.821 Y75.76 E62.51046
G1 X63.826 Y75.76 E62.51069
G1 X64.007 Y75.733 E62.51937
G1 X64.026 Y75.736 E62.52028
G1 X64.348 Y76.392 E62.55491
G1 X64.43 Y76.929 E62.58066
G1 X63.896 Y76.848 E62.60626
G1 X63.235 Y76.527 E62.64109
G1 X63.232 Y76.51 E62.64191
G1 X63.269 Y76.266 E62.6536
G1 X63.379 Y76.049 E62.66513
M205 X10 Y10
G0 F6000 X63.69 Y76.276
M205 X8 Y8
G1 F1200 X63.777 Y76.189 E62.67096
G1 X63.815 Y76.169 E62.673
G1 X63.956 Y76.456 E62.68815
G1 X63.669 Y76.316 E62.70329
G1 X63.69 Y76.276 E62.70543
M205 X10 Y10
G1 F1800 E56.70543
G1 F480 Z0.375
G0 F6000 X64.941 Y77.441 Z0.375
M205 X8 Y8
G1 F480 Z0.3
G1 F1800 E62.70543
G1 F1200 X65.063 Y77.49 E62.71166
G1 X144.938 Y77.49 E66.49739
G1 X145.053 Y77.451 E66.50315
G1 X145.061 Y77.437 E66.50391
G1 X145.01 Y77.563 E66.51035
G1 X145.01 Y132.438 E69.11119
G1 X145.049 Y132.553 E69.11695
G1 X145.059 Y132.559 E69.1175
G1 X144.937 Y132.51 E69.12373
G1 X65.062 Y132.51 E72.90946
G1 X64.947 Y132.549 E72.91522
G1 X64.941 Y132.559 E72.91577
G1 X64.99 Y132.437 E72.922
G1 X64.99 Y77.562 E75.52284
G1 X64.951 Y77.447 E75.5286
G1 X64.941 Y77.441 E75.52915
M205 X10 Y10
G0 F6000 X65.37 Y77.87
M205 X8 Y8
G1 F1200 X144.63 Y77.87 E79.28573
G1 X144.63 Y132.13 E81.85742
G1 X65.37 Y132.13 E85.61401
G1 X65.37 Y77.87 E88.1857
M205 X10 Y10
G0 F6000 X65.75 Y78.25
M205 X8 Y8
G1 F1200 X144.25 Y78.25 E91.90626
G1 X144.25 Y131.75 E94.44193
G1 X65.75 Y131.75 E98.16249
G1 X65.75 Y78.25 E100.69816
M205 X10 Y10
G0 F6000 X66.13 Y78.63
M205 X8 Y8
G1 F1200 X143.87 Y78.63 E104.3827
G1 X143.87 Y131.37 E106.88235
G1 X66.13 Y131.37 E110.56689
G1 X66.13 Y78.63 E113.06654
M205 X10 Y10
G0 F6000 X66.51 Y79.01
M205 X8 Y8
G1 F1200 X143.49 Y79.01 E116.71506
G1 X143.49 Y130.99 E119.17869
G1 X66.51 Y130.99 E122.82721
G1 X66.51 Y79.01 E125.29084
M205 X10 Y10
G0 F6000 X66.89 Y79.39
M205 X8 Y8
G1 F1200 X143.11 Y79.39 E128.90334
G1 X143.11 Y130.61 E131.33094
G1 X66.89 Y130.61 E134.94344
G1 X66.89 Y79.39 E137.37105
M205 X10 Y10
G0 F6000 X67.27 Y79.77
M205 X8 Y8
G1 F1200 X142.73 Y79.77 E140.94753
G1 X142.73 Y130.23 E143.33912
G1 X67.27 Y130.23 E146.91559
G1 X67.27 Y79.77 E149.30718
M205 X10 Y10
G0 F6000 X67.65 Y80.15
M205 X8 Y8
G1 F1200 X142.35 Y80.15 E152.84764
G1 X142.35 Y116.331 E154.56246
G1 X142.343 Y116.306 E154.56369
G1 X142.291 Y116.14 E154.57194
G1 X142.055 Y115.453 E154.60637
G1 X141.931 Y115.15 E154.62188
G1 X141.519 Y114.288 E154.66716
G1 X141.291 Y113.895 E154.6887
G1 X140.553 Y112.829 E154.75015
G1 X140.312 Y112.527 E154.76846
G1 X139.641 Y111.794 E154.81556
G1 X139.33 Y111.501 E154.83581
G1 X138.507 Y110.836 E154.88596
G1 X138.317 Y110.695 E154.89717
G1 X137.684 Y110.265 E154.93344
G1 X137.375 Y110.083 E154.95044
G1 X136.693 Y109.736 E154.98671
G1 X136.575 Y109.679 E154.99292
G1 X135.869 Y109.36 E155.02964
G1 X135.394 Y109.194 E155.05349
G1 X134.33 Y108.925 E155.1055
G1 X134.17 Y108.889 E155.11327
G1 X133.536 Y108.767 E155.14387
G1 X133.172 Y108.721 E155.16126
G1 X132.212 Y108.662 E155.20685
G1 X131.81 Y108.666 E155.2259
G1 X130.71 Y108.754 E155.27821
G1 X130.506 Y108.778 E155.28794
G1 X129.631 Y108.912 E155.3299
G1 X129.181 Y109.019 E155.35182
G1 X128.609 Y109.205 E155.38033
G1 X128.395 Y109.284 E155.39114
G1 X127.53 Y109.644 E155.43554
G1 X127.35 Y109.726 E155.44492
G1 X126.68 Y110.061 E155.48042
G1 X126.388 Y110.23 E155.49641
G1 X125.375 Y110.897 E155.5539
G1 X124.946 Y111.243 E155.58002
G1 X124.025 Y112.147 E155.64118
G1 X123.734 Y112.48 E155.66214
G1 X123.084 Y113.354 E155.71377
G1 X122.977 Y113.508 E155.72266
G1 X122.628 Y114.048 E155.75313
G1 X122.463 Y114.341 E155.76907
G1 X121.999 Y115.288 E155.81905
G1 X121.847 Y115.662 E155.83818
G1 X121.512 Y116.694 E155.88961
G1 X121.404 Y117.153 E155.91196
G1 X121.194 Y118.559 E155.97933
G1 X121.163 Y118.98 E155.99934
G1 X121.163 Y119.563 E156.02697
G1 X121.171 Y119.78 E156.03726
G1 X121.249 Y120.801 E156.0858
G1 X121.293 Y121.126 E156.10134
G1 X121.502 Y122.205 E156.15343
G1 X121.597 Y122.566 E156.17112
G1 X121.908 Y123.497 E156.21765
G1 X122.1 Y123.943 E156.24066
G1 X122.584 Y124.844 E156.28913
G1 X122.655 Y124.968 E156.29591
G1 X123.031 Y125.591 E156.3304
G1 X123.223 Y125.87 E156.34645
G1 X123.778 Y126.582 E156.38923
G1 X124.031 Y126.866 E156.40726
G1 X124.725 Y127.546 E156.45331
G1 X125 Y127.782 E156.47049
G1 X125.634 Y128.262 E156.50818
G1 X125.863 Y128.419 E156.52134
G1 X126.679 Y128.92 E156.56672
G1 X126.814 Y128.998 E156.57411
G1 X127.489 Y129.363 E156.61048
G1 X127.876 Y129.536 E156.63057
G1 X128.744 Y129.85 E156.67432
G1 X67.65 Y129.85 E159.56991
G1 X67.65 Y80.15 E161.92548
M205 X10 Y10
G0 F6000 X68.03 Y80.53
M205 X8 Y8
G1 F1200 X141.97 Y80.53 E165.42991
G1 X141.97 Y114.35 E167.03284
G1 X141.862 Y114.124 E167.04471
G1 X141.604 Y113.678 E167.06913
G1 X140.866 Y112.612 E167.13058
G1 X140.592 Y112.27 E167.15135
G1 X139.921 Y111.537 E167.19845
G1 X139.569 Y111.206 E167.22135
